gama.ui.shared/icons_svg/dark/status/status.error.svg

<svg height="24.75" viewBox="-634.872 -3408.886 24.75 24.75" width="24.75" xmlns="http://www.w3.org/2000/svg"><path d="m-622.07595-3395.2475c0 .2325-.18849.421-.42105.421-.2325 0-.421-.1885-.421-.421v-3.3682c0-.2323.1885-.421.421-.421.23256 0 .42105.1887.42105.421zm-.84205 2.1051h.84205v.8421h-.84205zm.0489-10.7226c.1582-.2986.5861-.2986.7442 0l7.57844 14.315c.14846.2802-.05484.618-.3721.618h-15.15684c-.31725 0-.5205-.3378-.3721-.618zm-6.507 14.0908h13.7583l-6.8792-12.9938z" fill="#ff797c"/></svg>

<?xml version="1.0" encoding="UTF-8" standalone="no"?>
<!DOCTYPE svg PUBLIC "-//W3C//DTD SVG 1.1//EN" "http://www.w3.org/Graphics/SVG/1.1/DTD/svg11.dtd">
<svg xmlns:dc="http://purl.org/dc/elements/1.1/" version="1.1" xmlns="http://www.w3.org/2000/svg" xmlns:xl="http://www.w3.org/1999/xlink" viewBox="-634.872 -3408.8856 24.75 24.75" width="24.75" height="24.75">
  <defs/>
  <g id="SOURCES" stroke="none" stroke-dasharray="none" fill-opacity="1" stroke-opacity="1" fill="none">
    <title>SOURCES</title>
    <g id="SOURCES_Dark">
      <title>Dark</title>
      <g id="Graphic_11745"/>
      <g id="Graphic_11744">
        <path d="M -622.07595 -3395.2475 C -622.07595 -3395.015 -622.26444 -3394.8265 -622.497 -3394.8265 C -622.7295 -3394.8265 -622.918 -3395.015 -622.918 -3395.2475 L -622.918 -3398.6157 C -622.918 -3398.848 -622.7295 -3399.0367 -622.497 -3399.0367 C -622.26444 -3399.0367 -622.07595 -3398.848 -622.07595 -3398.6157 Z M -622.918 -3393.1424 L -622.07595 -3393.1424 L -622.07595 -3392.3003 L -622.918 -3392.3003 Z M -622.8691 -3403.865 C -622.7109 -3404.1636 -622.283 -3404.1636 -622.1249 -3403.865 L -614.54646 -3389.55 C -614.398 -3389.2698 -614.6013 -3388.932 -614.91856 -3388.932 L -630.0754 -3388.932 C -630.39265 -3388.932 -630.5959 -3389.2698 -630.4475 -3389.55 Z M -629.3761 -3389.7742 L -615.6178 -3389.7742 L -622.497 -3402.768 Z" fill="#ff797c"/>
      </g>
    </g>
  </g>
</svg>
